images/icons/brickwall.svg

<svg height="32pt" viewBox="0 0 32 32" width="32pt" xmlns="http://www.w3.org/2000/svg"><g fill="#fff"><path d="m.535156 32.050781h25.589844c.292969 0 .53125-.238281.53125-.535156v-4.796875h3.730469c.296875 0 .535156-.238281.535156-.535156v-5.328125c0-.296875-.238281-.535157-.535156-.535157h-3.730469v-4.796874c0-.296876-.238281-.535157-.53125-.535157h-.980469c.074219-.347656-.003906-.710937-.21875-.996093l-2.40625-3.210938 1.109375-.835938c.496094-.371093.773438-.960937.738282-1.578124l-.054688-.960938c-.015625-.261719.101562-.511719.308594-.667969l1.113281-.832031.46875.621094c.085937.113281.210937.1875.351563.210937.023437 0 .050781.003907.074218.003907.117188 0 .226563-.039063.320313-.105469l4.398437-3.300781c.707032-.53125.851563-1.53125.320313-2.238282l-.296875-.398437c-.53125-.70312525-1.53125-.847657-2.238282-.316407l-4.398437 3.296876c-.234375.179687-.285156.511718-.105469.75l.464844.621093-1.109375.835938c-.496094.371093-.773437.960937-.738281 1.578125l.054687.960937c.015625.261719-.101562.511719-.308593.667969l-1.113282.832031-2.410156-3.210937c-.25-.339844-.660156-.527344-1.085938-.496094-.402343.027344-.761718.261719-.953124.617188l-4.382813 8.152343h-12.511719c-.296875 0-.535156.238281-.535156.535157v5.332031c0 .292969.238281.53125.535156.53125h3.730469v4.265625h-3.730469c-.296875 0-.535156.238281-.535156.53125v5.332031c0 .296875.238281.535156.535156.535156zm29.238282-30.816406c.234374-.175781.566406-.128906.746093.105469l.296875.398437c.175782.234375.125.566407-.109375.742188l-3.972656 2.980469-.933594-1.246094zm-20.175782 25.484375h7.460938v4.265625h-7.460938zm4.261719-5.332031h7.464844v4.265625h-7.464844zm11.730469 9.597656h-7.464844v-4.265625h7.464844zm4.265625-5.332031h-7.464844v-4.265625h7.464844zm-4.265625-5.332032h-7.464844v-3.105468l5.457031-1.160156h2.007813zm-7.222656-12.976562c.019531-.039062.054687-.0625.097656-.0625h.011718c.054688 0 .109376.027344.140626.074219l2.40625 3.210937-2.199219 1.648438c-.234375.179687-.28125.511718-.105469.75.175781.234375.511719.28125.746094.105468l2.199218-1.652343 2.410157 3.214843c.039062.046876.050781.109376.027343.164063-.011718.039063-.042968.070313-.085937.078125l-10.578125 2.246094c-.0625.011718-.128906-.015625-.167969-.070313-.042969-.050781-.050781-.121093-.023437-.183593zm-5.949219 10.347656c.285156.390625.769531.574219 1.242187.472656l3.398438-.722656v2.878906h-7.460938v-4.265624h2.875l-.164062.308593c-.226563.425781-.1875.945313.109375 1.328125zm-11.351563.496094h1.066406c.292969 0 .53125-.238281.53125-.53125 0-.296875-.238281-.535156-.53125-.535156h-1.066406v-1.066406h7.464844v4.265624h-7.464844zm4.265625 3.199219h7.464844v4.265625h-7.464844zm-4.265625 5.332031h7.464844v4.265625h-7.464844zm0 0"/><path d="m6.929688 17.65625c0-.296875-.238282-.535156-.53125-.535156h-2.132813c-.296875 0-.535156.238281-.535156.535156 0 .292969.238281.53125.535156.53125h2.132813c.292968 0 .53125-.238281.53125-.53125zm0 0"/></g></svg>

<?xml version="1.0" encoding="UTF-8"?>
<svg xmlns="http://www.w3.org/2000/svg" xmlns:xlink="http://www.w3.org/1999/xlink" width="32pt" height="32pt" viewBox="0 0 32 32" version="1.1">
<g id="surface1">
<path style=" stroke:none;fill-rule:nonzero;fill:rgb(255%,255%,255%);fill-opacity:1;" d="M 0.535156 32.050781 L 26.125 32.050781 C 26.417969 32.050781 26.65625 31.8125 26.65625 31.515625 L 26.65625 26.71875 L 30.386719 26.71875 C 30.683594 26.71875 30.921875 26.480469 30.921875 26.183594 L 30.921875 20.855469 C 30.921875 20.558594 30.683594 20.320312 30.386719 20.320312 L 26.65625 20.320312 L 26.65625 15.523438 C 26.65625 15.226562 26.417969 14.988281 26.125 14.988281 L 25.144531 14.988281 C 25.21875 14.640625 25.140625 14.277344 24.925781 13.992188 L 22.519531 10.78125 L 23.628906 9.945312 C 24.125 9.574219 24.402344 8.984375 24.367188 8.367188 L 24.3125 7.40625 C 24.296875 7.144531 24.414062 6.894531 24.621094 6.738281 L 25.734375 5.90625 L 26.203125 6.527344 C 26.289062 6.640625 26.414062 6.714844 26.554688 6.738281 C 26.578125 6.738281 26.605469 6.742188 26.628906 6.742188 C 26.746094 6.742188 26.855469 6.703125 26.949219 6.636719 L 31.347656 3.335938 C 32.054688 2.804688 32.199219 1.804688 31.667969 1.097656 L 31.371094 0.699219 C 30.839844 -0.00390625 29.839844 -0.148438 29.132812 0.382812 L 24.734375 3.679688 C 24.5 3.859375 24.449219 4.191406 24.628906 4.429688 L 25.09375 5.050781 L 23.984375 5.886719 C 23.488281 6.257812 23.210938 6.847656 23.246094 7.464844 L 23.300781 8.425781 C 23.316406 8.6875 23.199219 8.9375 22.992188 9.09375 L 21.878906 9.925781 L 19.46875 6.714844 C 19.21875 6.375 18.808594 6.1875 18.382812 6.21875 C 17.980469 6.246094 17.621094 6.480469 17.429688 6.835938 L 13.046875 14.988281 L 0.535156 14.988281 C 0.238281 14.988281 0 15.226562 0 15.523438 L 0 20.855469 C 0 21.148438 0.238281 21.386719 0.535156 21.386719 L 4.265625 21.386719 L 4.265625 25.652344 L 0.535156 25.652344 C 0.238281 25.652344 0 25.890625 0 26.183594 L 0 31.515625 C 0 31.8125 0.238281 32.050781 0.535156 32.050781 Z M 29.773438 1.234375 C 30.007812 1.058594 30.339844 1.105469 30.519531 1.339844 L 30.816406 1.738281 C 30.992188 1.972656 30.941406 2.304688 30.707031 2.480469 L 26.734375 5.460938 L 25.800781 4.214844 Z M 9.597656 26.71875 L 17.058594 26.71875 L 17.058594 30.984375 L 9.597656 30.984375 Z M 13.859375 21.386719 L 21.324219 21.386719 L 21.324219 25.652344 L 13.859375 25.652344 Z M 25.589844 30.984375 L 18.125 30.984375 L 18.125 26.71875 L 25.589844 26.71875 Z M 29.855469 25.652344 L 22.390625 25.652344 L 22.390625 21.386719 L 29.855469 21.386719 Z M 25.589844 20.320312 L 18.125 20.320312 L 18.125 17.214844 L 23.582031 16.054688 L 25.589844 16.054688 Z M 18.367188 7.34375 C 18.386719 7.304688 18.421875 7.28125 18.464844 7.28125 L 18.476562 7.28125 C 18.53125 7.28125 18.585938 7.308594 18.617188 7.355469 L 21.023438 10.566406 L 18.824219 12.214844 C 18.589844 12.394531 18.542969 12.726562 18.71875 12.964844 C 18.894531 13.199219 19.230469 13.246094 19.464844 13.070312 L 21.664062 11.417969 L 24.074219 14.632812 C 24.113281 14.679688 24.125 14.742188 24.101562 14.796875 C 24.089844 14.835938 24.058594 14.867188 24.015625 14.875 L 13.4375 17.121094 C 13.375 17.132812 13.308594 17.105469 13.269531 17.050781 C 13.226562 17 13.21875 16.929688 13.246094 16.867188 Z M 12.417969 17.691406 C 12.703125 18.082031 13.1875 18.265625 13.660156 18.164062 L 17.058594 17.441406 L 17.058594 20.320312 L 9.597656 20.320312 L 9.597656 16.054688 L 12.472656 16.054688 L 12.308594 16.363281 C 12.082031 16.789062 12.121094 17.308594 12.417969 17.691406 Z M 1.066406 18.1875 L 2.132812 18.1875 C 2.425781 18.1875 2.664062 17.949219 2.664062 17.65625 C 2.664062 17.359375 2.425781 17.121094 2.132812 17.121094 L 1.066406 17.121094 L 1.066406 16.054688 L 8.53125 16.054688 L 8.53125 20.320312 L 1.066406 20.320312 Z M 5.332031 21.386719 L 12.796875 21.386719 L 12.796875 25.652344 L 5.332031 25.652344 Z M 1.066406 26.71875 L 8.53125 26.71875 L 8.53125 30.984375 L 1.066406 30.984375 Z M 1.066406 26.71875 "/>
<path style=" stroke:none;fill-rule:nonzero;fill:rgb(255%,255%,255%);fill-opacity:1;" d="M 6.929688 17.65625 C 6.929688 17.359375 6.691406 17.121094 6.398438 17.121094 L 4.265625 17.121094 C 3.96875 17.121094 3.730469 17.359375 3.730469 17.65625 C 3.730469 17.949219 3.96875 18.1875 4.265625 18.1875 L 6.398438 18.1875 C 6.691406 18.1875 6.929688 17.949219 6.929688 17.65625 Z M 6.929688 17.65625 "/>
</g>
</svg>
